img/c/codesignal.com.svg

<svg viewBox="0.8125 0 79.38400268554688 80" fill="none" xmlns="http://www.w3.org/2000/svg">
  <ellipse cx="40.5045" cy="40" rx="39.692" ry="40" fill="#004AE1"></ellipse>
  <g clip-path="url(#clip0)">
    <path fill-rule="evenodd" clip-rule="evenodd" d="M40.226 29.699L39.5767 26.5973L10.8906 22.5411L20.0985 36.6182L21.9873 36.8568L26.8273 44.7901L31.1952 45.3269L40.403 67.0391L49.3748 45.3269L53.8607 44.9691L58.7007 36.8568L60.3534 36.6182L69.7384 22.5411L40.9933 26.5973L40.226 29.699Z" fill="white"></path>
    <path fill-rule="evenodd" clip-rule="evenodd" d="M35.7982 30.5397L19.3828 27.5516L22.6895 32.6912L32.3734 34.0059L33.3182 37.3526L26.941 36.755L29.421 40.9383L34.5582 41.3566L40.463 59.0462L46.3088 41.3566L51.505 40.9383L53.985 36.755L47.6078 37.3526L48.5526 34.0059L58.2365 32.6912L61.6022 27.5516L45.0097 30.5397L40.4039 48.2293L35.7982 30.5397Z" fill="#004AE1"></path>
  </g>
  <defs>
    <clipPath id="clip0">
      <rect width="58.8477" height="44.4979" fill="white" transform="translate(10.8906 22.5411)"></rect>
    </clipPath>
  </defs>
</svg>

<svg xmlns="http://www.w3.org/2000/svg" fill="none" viewBox=".8 0 79.4 80"><ellipse cx="40.5" cy="40" fill="#004AE1" rx="39.7" ry="40"/><g fill-rule="evenodd" clip-path="url(#a)" clip-rule="evenodd"><path fill="#fff" d="m40.2 29.7-.6-3.1-28.7-4 9.2 14 1.9.3 4.8 7.9 4.4.5L40.4 67l9-21.7 4.5-.3 4.8-8.1 1.7-.3 9.3-14-28.7 4-.8 3.1Z"/><path fill="#004AE1" d="m35.8 30.5-16.4-3 3.3 5.2 9.7 1.3 1 3.4-6.5-.6 2.5 4.1 5.2.5L40.5 59l5.8-17.6 5.2-.5 2.5-4.1-6.4.6 1-3.4 9.6-1.3 3.4-5.1-16.6 3-4.6 17.6-4.6-17.7Z"/></g><defs><clipPath id="a"><path fill="#fff" d="M0 0h58.8v44.5H0z" transform="translate(10.9 22.5)"/></clipPath></defs></svg>
